X: 0
T: Valtrall
M:4/4
K:C transposition=1
A8 | A3/2c/ _BB AF D3/2D/ | CE GE D4 | G_B dB A2 B/4A/4G/4Az/4 | d3/2c/ _B/A/B/d/ cA FA | \
c3/2d/ _BA G4 | cA/c/ _B/A/G/B/ AF D3/2D/ | CE GE/4G/4E/ D4 | A3/2c/ _BB AF D3/2D/ |
